X: 180
T: Chule gede qianqian xiale gedemi
%%abc-version 2.0
%%abcx-abcm2ps-target-version 5.9.1 (29 Sep 2008)
%%abc-creator hum2abc beta
%%abcx-conversion-date 2013/10/02 07:52:29
%%abc-edited-by Helmut Schaffrath
%%humdrum-veritas 2450367379
%%humdrum-veritas-data 2864395485
%%continueall 1
%%barnumbers 0
L: 1/16
M: 4/8
K: G
d2 d2 d2 d g [I:setbarnb 1]| 
d e d B A G A2 | 
A2 d2 d2 A d | 
G8 | 
[M:3/8]A2 d2 A d | 
A G F E D2 | 
G2 A B F E | 
E2D6 |]  



